source/sprite/compas.svg

<svg xmlns="http://www.w3.org/2000/svg" viewBox="0 0 49.999 49.999">
  <path d="M30.84 10.87c.734-1.11 1.165-2.44 1.165-3.87 0-3.865-3.135-7-7-7S18 3.135 18 7.002c0 1.43.43 2.757 1.166 3.865C10.968 13.364 5 20.982 5 29.997 5 41.045 13.954 50 25 50s20-8.956 20-20.002c0-9.014-5.965-16.63-14.16-19.13zM25.003 4c1.654 0 3 1.347 3 3.002 0 1.643-1.328 2.98-2.967 2.997-.012 0-.024-.006-.037-.006l-.03.002C23.33 9.98 22 8.643 22 7c0-1.655 1.346-3 3-3zM25 46c-8.822 0-16-7.178-16-16 0-8.808 7.153-15.972 15.953-16 .018 0 .035.004.053.004l.05-.003C33.85 14.03 41 21.198 41 30c0 8.823-7.178 16-16 16zm2.21-22.108c-2.442-.882-5.06-.236-6.808 1.51-1.856 1.857-2.35 4.556-1.49 6.865L15 40l7.978-3.827c2.424.792 4.94.1 6.62-1.577 1.775-1.776 2.304-4.322 1.596-6.562L35 20l-7.79 3.89zM25 32.5c-3.29 0-3.296-5.002 0-5.002 1.382 0 2.5 1.12 2.5 2.5 0 1.382-1.118 2.5-2.5 2.5z"/>
</svg>

<?xml version="1.0" encoding="iso-8859-1"?>
<!-- Generator: Adobe Illustrator 19.1.0, SVG Export Plug-In . SVG Version: 6.00 Build 0)  -->
<svg version="1.1" id="Capa_1" xmlns="http://www.w3.org/2000/svg" xmlns:xlink="http://www.w3.org/1999/xlink" x="0px" y="0px"
	 viewBox="0 0 49.999 49.999" style="enable-background:new 0 0 49.999 49.999;" xml:space="preserve">
<g id="compass_1_">
	<g>
		<path d="M30.839,10.869c0.736-1.108,1.167-2.437,1.167-3.867C32.006,3.135,28.871,0,25.004,0c-3.867,0-7.002,3.135-7.002,7.002
			c0,1.429,0.43,2.757,1.166,3.865C10.968,13.364,5,20.982,5,29.998c0,11.046,8.954,20.001,20,20.001c11.046,0,20-8.955,20-20.001
			C45,20.984,39.035,13.368,30.839,10.869z M25.004,4.001c1.654,0,3.001,1.346,3.001,3.001c0,1.643-1.329,2.98-2.968,2.997
			c-0.012,0-0.024-0.002-0.037-0.002c-0.01,0-0.021,0.002-0.031,0.002c-1.638-0.02-2.965-1.355-2.965-2.997
			C22.004,5.347,23.35,4.001,25.004,4.001z M25,45.998c-8.822,0-15.999-7.178-15.999-16c0-8.806,7.151-15.971,15.951-15.997
			c0.018,0,0.035,0.003,0.053,0.003c0.016,0,0.032-0.002,0.049-0.003c8.797,0.029,15.946,7.193,15.946,15.997
			C40.999,38.821,33.822,45.998,25,45.998z M27.21,23.89c-2.442-0.882-5.06-0.236-6.808,1.511c-1.856,1.856-2.349,4.555-1.491,6.864
			L15,40l7.978-3.827c2.424,0.792,4.941,0.101,6.619-1.577c1.776-1.776,2.305-4.322,1.597-6.562L35,20L27.21,23.89z M25,32.499
			c-3.289,0-3.296-5.001,0.001-5.001c1.381,0,2.5,1.119,2.5,2.501C27.5,31.38,26.382,32.499,25,32.499z"/>
	</g>
</g>
<g>
</g>
<g>
</g>
<g>
</g>
<g>
</g>
<g>
</g>
<g>
</g>
<g>
</g>
<g>
</g>
<g>
</g>
<g>
</g>
<g>
</g>
<g>
</g>
<g>
</g>
<g>
</g>
<g>
</g>
</svg>
